X:1
T:[ID 6-72]
T:[ID 6-72]
T:Bezeichnung standardisiert: Menuet [mit Trio] Menuet Con Trio 17.
T:Urheber unbekannt Datum in der hier transkribierten schriftlichen Quelle: 1775
C:Urheber unbekannt
C:Datum in der hier transkribierten schriftlichen Quelle: 1775
L:1/8
M:3/4
K:A
V:1 treble 
V:1
 A2 (3cBA (3fed | c4 B2 | AE C2 B,2 | C4 G2 | (3ABc c4 | (3^def f4 | (3^def e2 B2 | G6 :: %8
 A2 (3cBA (3edc | d2 E2 F2 | G2 (3BAG (3fe^d | e2 F2 G2 | A2 (3cBA (3fed | c4 B2 | (3AGF E4 | C6 :| %16
[M:3/4]"^Trio" !fermata!A4 (3ABc | c4 (3cde | GA B2 B2 | B2 A2 z2 | d2 c2 d2 | c4 A2 | A2 B2 A2 | %23
 G6 :: G4 (3GAB | AB c4 | B4 (3Bcd | cd e4 | dc d2 B2 | c4 (3ABc | B2 A2 ED | C6 :| %32

